!!!!SEGMENT:Daimyogyouretu.krn
!!!OTL: 大名行列
!!!OPR:Eiga Banso Kyokusyu,jidai-geki,kouhen
!!!YOY:1928
**kern
*clefG2
*k[f#]
*G:
*M2/4
=1
4a
8bL
8aJ
=2
4b
4a
=3
4f#
8f#L
8f#J
=4
4f#
4f#
=5
4e
8f#L
8eJ
=6
4f#
4e
=7
4c
8cL
8cJ
=8
4c
4B
=9
4a
8bL
8bJ
=10
4b
8ccL
8bJ
=11
8f#L
8aJ
8bL
8gJ
=12
4f#
8gL
8f#J
=13
4e
8f#L
8f#J
=14
4f#
4f#
=15
4c
8eL
8cJ
=16
4c
4B
=17
4a
8bL
8bJ
=18
4b
8ccL
8bJ
=19
8BL
8aJ
8.bL
16gJk
=20
4f#
4r
==
*-
!!!ENC: Yukiko Yoden
!!!END: 2023/06/11
